OBS Studio/Fluent Dark Grey/revert.svg

<svg width="24" height="24" fill="none" viewBox="0 0 24 24" xmlns="http://www.w3.org/2000/svg"><path d="m6.9074 6.6796 2.7337-2.7287c2.6012-2.6012 6.8186-2.6012 9.4198 0 2.6012 2.6012 2.6012 6.8186 0 9.4199l-8.3384 8.337c-0.3906 0.3904-1.0237 0.3902-1.4142-3e-4 -0.39053-0.3905-0.39036-1.0237 2.3e-4 -1.4142l8.3382-8.3368c1.8202-1.8201 1.8202-4.7712 0-6.5914-1.7633-1.7633-4.5879-1.8184-6.4181-0.16472l-0.174 0.16537-3.6406 3.6332 4.586 5.4e-4c0.5128 0 0.9355 0.38604 0.9933 0.88337l0.0067 0.11663c0 0.51286-0.386 0.93546-0.8834 0.99326l-0.1166 0.0067-7.0596-0.0017-0.09542-0.0102-0.11186-0.0241-0.13152-0.0464-0.08192-0.0402-0.1019-0.0642c-0.04375-0.0313-0.08569-0.0668-0.12514-0.1063l-0.09171-0.1054-0.07438-0.114-0.04565-0.0927-0.03843-0.1057-0.0155-0.0573-0.01573-0.0816-0.00733-0.0612-0.00394-0.08896v-6.9972c0-0.55228 0.44772-1 1-1 0.51284 0 0.93551 0.38604 0.99327 0.88338l0.00673 0.11662v4.5836l3.6411-3.6351-2.7337 2.7287z" fill="#fff"/></svg>

<svg width="24" height="24" viewBox="0 0 24 24" fill="none" xmlns="http://www.w3.org/2000/svg">
<path d="M6.90735 6.6796L9.64108 3.95091C12.2423 1.3497 16.4597 1.3497 19.0609 3.95091C21.6621 6.55213 21.6621 10.7695 19.0609 13.3708L10.7225 21.7078C10.3319 22.0982 9.69877 22.098 9.30825 21.7075C8.91772 21.317 8.91789 20.6838 9.30848 20.2933L17.6467 11.9565C19.4669 10.1364 19.4669 7.1853 17.6467 5.36513C15.8834 3.60184 13.0588 3.54674 11.2286 5.20041L11.0546 5.36578L7.414 8.999L12 8.99954C12.5128 8.99954 12.9355 9.38558 12.9933 9.88291L13 9.99954C13 10.5124 12.614 10.935 12.1166 10.9928L12 10.9995L4.94043 10.9978L4.84501 10.9876L4.73315 10.9635L4.60163 10.9171L4.51971 10.8769L4.41781 10.8127C4.37406 10.7814 4.33212 10.7459 4.29267 10.7064L4.20096 10.601L4.12658 10.487L4.08093 10.3943L4.0425 10.2886L4.027 10.2313L4.01127 10.1497L4.00394 10.0885L4 9.99954V3.00235C4 2.45007 4.44772 2.00235 5 2.00235C5.51284 2.00235 5.93551 2.38839 5.99327 2.88573L6 3.00235V7.586L9.64108 3.95091L6.90735 6.6796Z" fill="white"/>
</svg>
